Sources/FrostedUI/Resources/Icons.xcassets/editProfile32.imageset/edit-profile-32.svg

<svg width="32" height="32" viewBox="0 0 32 32" fill="none" xmlns="http://www.w3.org/2000/svg" data-fui-icon="true">
  <path
    d="M24.6465 16.6865C26.1955 15.1375 28.7069 15.1375 30.2559 16.6865C31.8045 18.2354 31.8044 20.746 30.2559 22.2949L22.7393 29.8115C22.1374 30.4133 21.3488 30.7925 20.5029 30.8867L17.4248 31.2285C16.4376 31.3382 15.6032 30.5038 15.7129 29.5166L16.0547 26.4395C16.1488 25.5935 16.5281 24.8041 17.1299 24.2021L24.6465 16.6865ZM6.25781 19.0723C9.73001 16.6483 14.2447 15.6903 18.2783 17.3037C18.6628 17.4575 18.85 17.8938 18.6963 18.2783C18.5425 18.6629 18.1062 18.85 17.7217 18.6963C14.2554 17.3098 10.2699 18.1018 7.11719 20.3027C3.96735 22.5017 1.75004 26.0384 1.75 30C1.75 30.4142 1.41421 30.75 1 30.75C0.585786 30.75 0.25 30.4142 0.25 30C0.250039 25.4617 2.78275 21.4983 6.25781 19.0723ZM18.1904 25.2627C17.8293 25.6239 17.6023 26.0979 17.5459 26.6055L17.2041 29.6836C17.2009 29.7151 17.2272 29.7417 17.2588 29.7383L20.3359 29.3965C20.8436 29.3401 21.3175 29.1121 21.6787 28.751L26.959 23.4707L23.4707 19.9824L18.1904 25.2627ZM29.1953 17.7471C28.2321 16.7839 26.6702 16.7839 25.707 17.7471L24.5312 18.9219L28.0195 22.4102L29.1953 21.2344C30.1581 20.2712 30.1581 18.7102 29.1953 17.7471ZM15 0.25C18.7279 0.25 21.75 3.27208 21.75 7C21.75 10.7279 18.7279 13.75 15 13.75C11.2721 13.75 8.25 10.7279 8.25 7C8.25 3.27208 11.2721 0.25 15 0.25ZM15 1.75C12.1005 1.75 9.75 4.10051 9.75 7C9.75 9.8995 12.1005 12.25 15 12.25C17.8995 12.25 20.25 9.8995 20.25 7C20.25 4.10051 17.8995 1.75 15 1.75Z"
    fill="currentColor"
  />
</svg>

<svg xmlns="http://www.w3.org/2000/svg" width="32" height="32" fill="none" data-fui-icon="true" viewBox="0 0 32 32"><path fill="currentColor" d="M24.647 16.687a3.966 3.966 0 0 1 5.609 5.608l-7.517 7.516a3.75 3.75 0 0 1-2.236 1.076l-3.078.341a1.55 1.55 0 0 1-1.712-1.711l.342-3.078a3.75 3.75 0 0 1 1.075-2.237zm-18.39 2.385c3.473-2.424 7.988-3.382 12.021-1.768a.75.75 0 0 1-.556 1.392c-3.467-1.386-7.452-.594-10.605 1.607C3.967 22.502 1.75 26.038 1.75 30a.75.75 0 0 1-1.5 0c0-4.538 2.533-8.502 6.008-10.928m11.933 6.19a2.25 2.25 0 0 0-.644 1.343l-.342 3.079a.05.05 0 0 0 .055.054l3.077-.341a2.25 2.25 0 0 0 1.343-.646l5.28-5.28-3.488-3.489zm11.005-7.515a2.467 2.467 0 0 0-3.488 0l-1.176 1.175 3.489 3.488 1.175-1.176a2.466 2.466 0 0 0 0-3.487M15 .25a6.75 6.75 0 1 1 0 13.5 6.75 6.75 0 0 1 0-13.5m0 1.5a5.25 5.25 0 1 0 0 10.5 5.25 5.25 0 0 0 0-10.5"/></svg>
